;FLAVOR:Marlin
;TIME:8463
;Filament used: 5.94177m
;Layer height: 0.2
;MINX:59.529
;MINY:59.016
;MINZ:0.2
;MAXX:160.463
;MAXY:160.985
;MAXZ:11
;Generated with Cura_SteamEngine 4.10.0
M140 S50
M105
M190 S50
M104 S200
M105
M109 S200
M82 ;absolute extrusion mode
; Ender 3 Custom Start G-code
G92 E0 ; Reset Extruder
G28 ; Home all axes
G1 Z2.0 F3000 ; Move Z Axis up little to prevent scratching of Heat Bed
G1 X0.1 Y20 Z0.3 F5000.0 ; Move to start position
G1 X0.1 Y200.0 Z0.3 F1500.0 E15 ; Draw the first line
G1 X0.4 Y200.0 Z0.3 F5000.0 ; Move to side a little
G1 X0.4 Y20 Z0.3 F1500.0 E30 ; Draw the second line
G92 E0 ; Reset Extruder
G1 Z2.0 F3000 ; Move Z Axis up little to prevent scratching of Heat Bed
G1 X5 Y20 Z0.3 F5000.0 ; Move over to prevent blob squish
G92 E0
G92 E0
G1 F2700 E-5
;LAYER_COUNT:55
;LAYER:0
M107
G0 F6000 X74.693 Y74.094 Z0.2
;TYPE:SKIRT
G1 F2700 E0
G1 F1200 X74.908 Y73.883 E0.01002
G1 X75.128 Y73.673 E0.02013
G1 X75.317 Y73.497 E0.02872
G1 X75.809 Y73.049 E0.05086
G1 X76.269 Y72.653 E0.07104
G1 X77.062 Y72.007 E0.10506
G1 X78.01 Y71.21 E0.14626
G1 X79.099 Y70.311 E0.19322
G1 X79.327 Y70.128 E0.20295
G1 X79.492 Y69.999 E0.20991
G1 X79.718 Y69.827 E0.21936
G1 X80.115 Y69.536 E0.23573
G1 X80.69 Y69.13 E0.25914
G1 X81.212 Y68.783 E0.27999
G1 X82.192 Y68.172 E0.3184
G1 X83.128 Y67.566 E0.35549
G1 X84.278 Y66.838 E0.40076
G1 X84.567 Y66.661 E0.41203
G1 X84.959 Y66.432 E0.42713
G1 X85.194 Y66.299 E0.43611
G1 X85.465 Y66.15 E0.4464
G1 X86.077 Y65.826 E0.46943
G1 X86.619 Y65.558 E0.48954
G1 X87.525 Y65.14 E0.52272
G1 X88.648 Y64.6 E0.56417
G1 X89.946 Y63.993 E0.61183
G1 X90.234 Y63.863 E0.62234
G1 X90.604 Y63.706 E0.63571
G1 X90.866 Y63.599 E0.64512
G1 X91.111 Y63.502 E0.65388
G1 X91.744 Y63.261 E0.67641
G1 X92.348 Y63.051 E0.69768
G1 X93.365 Y62.73 E0.73315
G1 X94.581 Y62.323 E0.7758
G1 X95.827 Y61.92 E0.81936
G1 X96.115 Y61.831 E0.82938
G1 X96.357 Y61.76 E0.83777
G1 X96.665 Y61.675 E0.8484
G1 X97.067 Y61.571 E0.86221
G1 X97.772 Y61.4 E0.88634
G1 X98.409 Y61.265 E0.90799
G1 X98.601 Y61.23 E0.91449
G1 X101.074 Y60.742 E0.99832
G1 X103.542 Y60.181 E1.0825
G1 X105.844 Y59.591 E1.16154
G1 X106.689 Y59.37 E1.19059
G1 X107.605 Y59.172 E1.22176
G1 X108.536 Y59.052 E1.25298
G1 X109.771 Y59.016 E1.29408
G1 X110.543 Y59.037 E1.31976
G1 X112.728 Y59.132 E1.39251
G1 X113.572 Y59.179 E1.42062
G1 X114.216 Y59.235 E1.44212
G1 X115.115 Y59.341 E1.47223
G1 X117.358 Y59.637 E1.54748
G1 X117.97 Y59.727 E1.56805
G1 X118.579 Y59.834 E1.58862
G1 X119.428 Y60.008 E1.61744
G1 X121.521 Y60.471 E1.68874
G1 X121.689 Y60.509 E1.69447
G1 X122.34 Y60.664 E1.71673
G1 X122.93 Y60.822 E1.73704
G1 X123.894 Y61.11 E1.7705
G1 X125.771 Y61.702 E1.83597
G1 X126.561 Y61.962 E1.86363
G1 X127.181 Y62.187 E1.88556
G1 X128.105 Y62.555 E1.91864
G1 X130.092 Y63.379 E1.99019
G1 X130.713 Y63.647 E2.01269
G1 X131.279 Y63.911 E2.03346
G1 X132.106 Y64.327 E2.06425
G1 X134.068 Y65.348 E2.13781
G1 X134.66 Y65.667 E2.16018
G1 X135.209 Y65.984 E2.18126
G1 X136.045 Y66.5 E2.21394
G1 X137.881 Y67.671 E2.28637
G1 X138.41 Y68.018 E2.30741
G1 X138.936 Y68.385 E2.32874
G1 X139.593 Y68.873 E2.35596
G1 X141.35 Y70.22 E2.4296
G1 X141.97 Y70.708 E2.45584
G1 X142.464 Y71.122 E2.47728
G1 X143.195 Y71.774 E2.50986
G1 X144.667 Y73.124 E2.57629
G1 X145.283 Y73.704 E2.60443
G1 X145.727 Y74.147 E2.62529
G1 X146.378 Y74.837 E2.65684
G1 X147.837 Y76.431 E2.72871
G1 X148.324 Y76.979 E2.7531
G1 X148.717 Y77.447 E2.77342
G1 X149.295 Y78.177 E2.80439
G1 X150.647 Y79.941 E2.87831
G1 X151.032 Y80.457 E2.89973
G1 X151.403 Y80.986 E2.92122
G1 X151.921 Y81.774 E2.95258
G1 X153.036 Y83.524 E3.0216
G1 X153.453 Y84.199 E3.04799
G1 X153.767 Y84.743 E3.06888
G1 X154.238 Y85.618 E3.10193
G1 X155.209 Y87.485 E3.17192
G1 X155.527 Y88.115 E3.19539
G1 X155.805 Y88.71 E3.21724
G1 X156.197 Y89.62 E3.25019
G1 X157.011 Y91.588 E3.32103
G1 X157.269 Y92.236 E3.34422
G1 X157.487 Y92.835 E3.36543
G1 X157.775 Y93.706 E3.39594
G1 X158.427 Y95.775 E3.46809
G1 X158.631 Y96.455 E3.4917
G1 X158.798 Y97.078 E3.51315
G1 X159.033 Y98.073 E3.54716
G1 X159.484 Y100.115 E3.61671
G1 X159.625 Y100.794 E3.63978
G1 X159.738 Y101.434 E3.66139
G1 X159.875 Y102.37 E3.69286
G1 X160.156 Y104.512 E3.76471
G1 X160.238 Y105.214 E3.78822
G1 X160.293 Y105.842 E3.80919
G1 X160.34 Y106.638 E3.83571
G1 X160.442 Y108.968 E3.91328
G1 X160.462 Y109.635 E3.93547
G1 X160.463 Y110.269 E3.95656
G1 X160.441 Y111.066 E3.98308
G1 X160.346 Y113.25 E4.05579
G1 X160.298 Y114.094 E4.0839
G1 X160.243 Y114.725 E4.10497
G1 X160.125 Y115.722 E4.13836
G1 X159.847 Y117.828 E4.20901
G1 X159.749 Y118.501 E4.23164
G1 X159.639 Y119.132 E4.25294
G1 X159.479 Y119.91 E4.27936
G1 X159.013 Y122.018 E4.35116
G1 X158.814 Y122.86 E4.37994
G1 X158.655 Y123.457 E4.40049
G1 X158.424 Y124.233 E4.42742
G1 X157.776 Y126.288 E4.49908
G1 X157.505 Y127.111 E4.5279
G1 X157.29 Y127.705 E4.54891
G1 X156.935 Y128.598 E4.58088
G1 X156.118 Y130.569 E4.65184
G1 X155.837 Y131.221 E4.67545
G1 X155.571 Y131.792 E4.6964
G1 X155.126 Y132.678 E4.72938
G1 X154.135 Y134.579 E4.80068
G1 X153.808 Y135.186 E4.82362
G1 X153.493 Y135.733 E4.84461
G1 X152.978 Y136.568 E4.87724
G1 X151.803 Y138.409 E4.94988
G1 X151.46 Y138.932 E4.97068
G1 X151.089 Y139.462 E4.9922
G1 X150.502 Y140.25 E5.02488
G1 X149.166 Y141.99 E5.09785
G1 X148.776 Y142.485 E5.11881
G1 X148.345 Y142.999 E5.14112
G1 X147.71 Y143.709 E5.1728
G1 X146.245 Y145.307 E5.2449
G1 X145.776 Y145.804 E5.26763
G1 X145.337 Y146.243 E5.28828
G1 X144.628 Y146.913 E5.32073
G1 X143.173 Y148.246 E5.38636
G1 X142.492 Y148.852 E5.41668
G1 X142.037 Y149.234 E5.43644
G1 X141.46 Y149.693 E5.46096
G1 X139.654 Y151.08 E5.5367
G1 X139.535 Y151.171 E5.54168
G1 X139.024 Y151.552 E5.56288
G1 X138.507 Y151.914 E5.58387
G1 X137.673 Y152.463 E5.61708
G1 X135.808 Y153.649 E5.69059
G1 X135.275 Y153.977 E5.71141
G1 X134.754 Y154.279 E5.73144
G1 X134.033 Y154.67 E5.75872
G1 X131.966 Y155.745 E5.83621
G1 X131.342 Y156.059 E5.85944
G1 X130.762 Y156.33 E5.88073
G1 X130.038 Y156.643 E5.90697
G1 X127.916 Y157.523 E5.98337
G1 X127.259 Y157.785 E6.0069
G1 X126.647 Y158.008 E6.02856
G1 X125.703 Y158.32 E6.06163
G1 X123.805 Y158.918 E6.12782
G1 X123.01 Y159.156 E6.15542
G1 X122.407 Y159.318 E6.17619
G1 X121.454 Y159.544 E6.20876
G1 X119.341 Y160.012 E6.28075
G1 X118.676 Y160.15 E6.30333
G1 X118.032 Y160.263 E6.32508
G1 X117.154 Y160.391 E6.35459
G1 X114.936 Y160.682 E6.429
G1 X114.284 Y160.759 E6.45083
G1 X113.64 Y160.816 E6.47234
G1 X112.693 Y160.87 E6.50388
G1 X110.521 Y160.964 E6.57619
G1 X109.802 Y160.985 E6.60012
G1 X108.864 Y160.973 E6.63132
G1 X107.931 Y160.88 E6.6625
G1 X106.724 Y160.639 E6.70344
G1 X105.564 Y160.337 E6.74331
G1 X105.048 Y160.196 E6.7611
G1 X102.57 Y159.59 E6.84595
G1 X99.403 Y158.926 E6.95357
G1 X98.285 Y158.711 E6.99144
G1 X97.985 Y158.649 E7.00163
G1 X97.495 Y158.538 E7.01834
G1 X97.07 Y158.431 E7.03291
G1 X96.367 Y158.241 E7.05713
G1 X95.753 Y158.056 E7.07846
G1 X94.704 Y157.706 E7.11524
G1 X93.598 Y157.357 E7.15382
G1 X92.265 Y156.922 E7.20045
G1 X91.994 Y156.83 E7.20997
G1 X91.738 Y156.739 E7.21901
G1 X91.43 Y156.624 E7.22994
G1 X91.028 Y156.465 E7.24432
G1 X90.38 Y156.197 E7.26765
G1 X89.825 Y155.949 E7.28786
G1 X88.949 Y155.529 E7.32018
G1 X87.789 Y154.995 E7.36265
G1 X86.49 Y154.381 E7.41044
G1 X86.056 Y154.165 E7.42656
G1 X85.831 Y154.049 E7.43498
G1 X85.603 Y153.927 E7.44358
G1 X85.339 Y153.781 E7.45362
G1 X84.712 Y153.423 E7.47763
G1 X84.201 Y153.113 E7.49751
G1 X83.299 Y152.531 E7.53321
G1 X82.326 Y151.925 E7.57134
G1 X81.141 Y151.171 E7.61805
G1 X80.868 Y150.991 E7.62893
G1 X80.479 Y150.724 E7.64462
G1 X80.261 Y150.569 E7.65352
G1 X80.048 Y150.414 E7.66228
G1 X79.505 Y150.008 E7.68483
G1 X79.01 Y149.615 E7.70585
G1 X78.273 Y148.995 E7.73789
G1 X77.281 Y148.19 E7.78038
G1 X76.186 Y147.28 E7.82773
G1 X75.97 Y147.095 E7.83719
G1 X75.609 Y146.775 E7.85324
G1 X75.418 Y146.6 E7.86185
G1 X75.185 Y146.381 E7.87249
G1 X74.699 Y145.909 E7.89502
G1 X74.292 Y145.492 E7.9144
G1 X73.553 Y144.694 E7.95057
G1 X72.742 Y143.844 E7.98965
G1 X71.77 Y142.806 E8.03695
G1 X71.552 Y142.567 E8.04771
G1 X71.28 Y142.256 E8.06145
G1 X71.154 Y142.108 E8.06791
G1 X70.959 Y141.872 E8.0781
G1 X70.49 Y141.289 E8.10298
G1 X70.113 Y140.792 E8.12373
G1 X69.483 Y139.911 E8.15975
G1 X68.801 Y138.992 E8.19782
G1 X67.96 Y137.829 E8.24555
G1 X67.723 Y137.489 E8.25934
G1 X67.526 Y137.195 E8.27111
G1 X67.359 Y136.936 E8.28136
G1 X67.234 Y136.737 E8.28917
G1 X66.87 Y136.145 E8.31229
G1 X66.561 Y135.609 E8.33287
G1 X66.072 Y134.704 E8.36708
G1 X65.485 Y133.653 E8.40712
G1 X64.811 Y132.426 E8.45368
G1 X64.649 Y132.12 E8.4652
G1 X64.453 Y131.728 E8.47977
G1 X64.226 Y131.25 E8.49737
G1 X63.937 Y130.613 E8.52064
G1 X63.693 Y130.031 E8.54163
G1 X63.36 Y129.168 E8.57239
G1 X62.856 Y127.927 E8.61694
G1 X62.352 Y126.65 E8.66261
G1 X62.246 Y126.371 E8.67253
G1 X62.166 Y126.151 E8.68032
G1 X62.068 Y125.871 E8.69018
G1 X61.986 Y125.625 E8.69881
G1 X61.908 Y125.381 E8.70733
G1 X61.7 Y124.705 E8.73085
G1 X61.537 Y124.116 E8.75118
G1 X61.301 Y123.162 E8.78387
G1 X60.98 Y121.958 E8.82531
G1 X60.632 Y120.59 E8.87226
G1 X60.563 Y120.305 E8.88201
G1 X60.513 Y120.084 E8.88955
G1 X60.454 Y119.806 E8.899
G1 X60.406 Y119.565 E8.90717
G1 X60.36 Y119.318 E8.91553
G1 X60.238 Y118.623 E8.939
G1 X60.149 Y118.016 E8.95941
G1 X60.026 Y116.975 E8.99427
G1 X59.865 Y115.787 E9.03414
G1 X59.689 Y114.391 E9.08094
G1 X59.654 Y114.071 E9.09165
G1 X59.613 Y113.618 E9.10678
G1 X59.596 Y113.385 E9.11455
G1 X59.58 Y113.114 E9.12358
G1 X59.545 Y112.387 E9.14779
G1 X59.532 Y111.771 E9.16828
G1 X59.541 Y110.687 E9.20433
G1 X59.529 Y109.516 E9.24328
G1 X59.532 Y108.103 E9.29028
G1 X59.537 Y107.809 E9.30006
G1 X59.543 Y107.601 E9.30698
G1 X59.555 Y107.312 E9.3166
G1 X59.585 Y106.805 E9.33349
G1 X59.634 Y106.166 E9.35481
G1 X59.697 Y105.561 E9.37504
G1 X59.85 Y104.403 E9.41389
G1 X59.982 Y103.291 E9.45114
G1 X60.161 Y101.889 E9.49814
G1 X60.202 Y101.596 E9.50798
G1 X60.24 Y101.351 E9.51623
G1 X60.289 Y101.061 E9.52601
G1 X60.374 Y100.607 E9.54138
G1 X60.513 Y99.926 E9.56449
G1 X60.66 Y99.3 E9.58588
G1 X60.922 Y98.313 E9.61984
G1 X61.219 Y97.113 E9.66096
G1 X61.566 Y95.774 E9.70697
G1 X61.636 Y95.516 E9.71586
G1 X61.713 Y95.246 E9.7252
G1 X61.806 Y94.936 E9.73596
G1 X61.955 Y94.473 E9.75214
G1 X62.16 Y93.87 E9.77332
G1 X62.378 Y93.286 E9.79405
G1 X62.804 Y92.233 E9.83184
G1 X63.216 Y91.167 E9.86985
G1 X63.735 Y89.861 E9.91659
G1 X63.863 Y89.551 E9.92774
G1 X64.029 Y89.174 E9.94144
G1 X64.132 Y88.948 E9.94971
G1 X64.251 Y88.695 E9.959
G1 X64.565 Y88.05 E9.98286
G1 X64.857 Y87.492 E10.00381
G1 X65.359 Y86.596 E10.03797
G1 X65.881 Y85.626 E10.07461
G1 X66.616 Y84.291 E10.12529
G1 X66.771 Y84.019 E10.13571
G1 X67.011 Y83.616 E10.15131
G1 X67.141 Y83.407 E10.15949
G1 X67.285 Y83.183 E10.16835
G1 X67.676 Y82.587 E10.19206
G1 X68.02 Y82.092 E10.21211
G1 X68.61 Y81.292 E10.24517
G1 X69.344 Y80.265 E10.28716
G1 X70.18 Y79.116 E10.33442
G1 X70.456 Y78.752 E10.34961
G1 X70.605 Y78.563 E10.35761
G1 X70.82 Y78.297 E10.36899
G1 X71.003 Y78.077 E10.37851
G1 X71.453 Y77.549 E10.40158
G1 X71.877 Y77.08 E10.42261
G1 X72.474 Y76.456 E10.45133
G1 X73.403 Y75.45 E10.49688
G1 X74.38 Y74.414 E10.54424
G1 X74.693 Y74.094 E10.55913
G0 F6000 X74.977 Y74.376
G1 F1200 X75.184 Y74.172 E10.5688
G1 X75.404 Y73.962 E10.57891
G1 X75.586 Y73.792 E10.58719
G1 X76.078 Y73.344 E10.60933
G1 X76.521 Y72.963 E10.62876
G1 X77.322 Y72.311 E10.66311
G1 X78.265 Y71.519 E10.70407
G1 X79.354 Y70.62 E10.75104
G1 X79.573 Y70.443 E10.7604
G1 X79.738 Y70.314 E10.76737
G1 X80.15 Y70.005 E10.7845
G1 X80.346 Y69.863 E10.79255
G1 X80.921 Y69.457 E10.81596
G1 X81.424 Y69.123 E10.83604
G1 X82.372 Y68.531 E10.87322
G1 X83.342 Y67.904 E10.91163
G1 X84.492 Y67.176 E10.9569
G1 X84.771 Y67.005 E10.96778
G1 X85.156 Y66.78 E10.98262
G1 X85.391 Y66.647 E10.9916
G1 X85.652 Y66.504 E11.0015
G1 X86.264 Y66.18 E11.02453
G1 X86.786 Y65.922 E11.04389
G1 X87.663 Y65.518 E11.07601
G1 X88.818 Y64.962 E11.11864
G1 X90.116 Y64.355 E11.1663
G1 X90.393 Y64.23 E11.17641
G1 X90.755 Y64.076 E11.1895
G1 X91.017 Y63.969 E11.19891
G1 X91.253 Y63.876 E11.20735
G1 X91.886 Y63.635 E11.22987
G1 X92.469 Y63.432 E11.25041
G1 X93.487 Y63.111 E11.28591
G1 X94.704 Y62.703 E11.3286
G1 X95.95 Y62.3 E11.37216
G1 X96.228 Y62.215 E11.38182
G1 X96.47 Y62.144 E11.39021
G1 X96.766 Y62.061 E11.40044
G1 X97.161 Y61.96 E11.414
G1 X97.866 Y61.789 E11.43813
G1 X98.48 Y61.659 E11.459
G1 X98.636 Y61.631 E11.46427
G1 X101.161 Y61.132 E11.54988
G1 X103.633 Y60.571 E11.63419
G1 X105.995 Y59.965 E11.71529
G1 X106.79 Y59.757 E11.74262
G1 X107.69 Y59.563 E11.77325
G1 X108.603 Y59.448 E11.80385
G1 X109.76 Y59.416 E11.84235
G1 X110.71 Y59.443 E11.87396
G1 X112.851 Y59.538 E11.94524
G1 X113.549 Y59.578 E11.96849
G1 X114.17 Y59.632 E11.98923
G1 X115.062 Y59.737 E12.0191
G1 X117.139 Y60.01 E12.08877
G1 X117.912 Y60.123 E12.11476
G1 X118.498 Y60.226 E12.13455
G1 X119.513 Y60.435 E12.16901
G1 X121.596 Y60.898 E12.23999
G1 X122.247 Y61.053 E12.26224
G1 X122.816 Y61.205 E12.28183
G1 X123.609 Y61.441 E12.30935
G1 X125.65 Y62.084 E12.38052
G1 X126.436 Y62.342 E12.40804
G1 X127.034 Y62.559 E12.4292
G1 X127.952 Y62.924 E12.46205
G1 X129.791 Y63.686 E12.52826
G1 X130.554 Y64.015 E12.5559
G1 X131.1 Y64.269 E12.57593
G1 X131.922 Y64.682 E12.60652
G1 X133.741 Y65.628 E12.67472
G1 X134.47 Y66.02 E12.70225
G1 X134.999 Y66.324 E12.72254
G1 X135.83 Y66.837 E12.75502
G1 X137.544 Y67.929 E12.82262
G1 X138.191 Y68.353 E12.84834
G1 X138.698 Y68.707 E12.86891
G1 X139.487 Y69.294 E12.90162
G1 X141.107 Y70.537 E12.96953
G1 X141.722 Y71.022 E12.99558
G1 X142.198 Y71.421 E13.01624
G1 X142.925 Y72.069 E13.04863
G1 X144.503 Y73.518 E13.11989
G1 X145.009 Y73.995 E13.14302
G1 X145.437 Y74.422 E13.16313
G1 X146.083 Y75.107 E13.19444
G1 X147.538 Y76.697 E13.26613
G1 X148.025 Y77.245 E13.29051
G1 X148.404 Y77.695 E13.31008
G1 X148.978 Y78.42 E13.34083
G1 X150.327 Y80.18 E13.41459
G1 X150.712 Y80.696 E13.436
G1 X151.069 Y81.206 E13.45671
G1 X151.584 Y81.989 E13.48788
G1 X152.784 Y83.875 E13.56223
G1 X153.113 Y84.409 E13.58309
G1 X153.415 Y84.933 E13.60321
G1 X153.883 Y85.802 E13.63603
G1 X154.852 Y87.666 E13.70591
G1 X155.17 Y88.296 E13.72938
G1 X155.438 Y88.869 E13.75042
G1 X155.827 Y89.773 E13.78315
G1 X156.639 Y91.736 E13.85381
G1 X156.897 Y92.384 E13.877
G1 X157.108 Y92.961 E13.89744
G1 X157.394 Y93.826 E13.92774
G1 X158.044 Y95.89 E13.99971
G1 X158.248 Y96.57 E14.02333
G1 X158.409 Y97.17 E14.04399
G1 X158.642 Y98.159 E14.07778
G1 X159.093 Y100.197 E14.14721
G1 X159.234 Y100.876 E14.17027
G1 X159.343 Y101.492 E14.19108
G1 X159.478 Y102.423 E14.22237
G1 X159.758 Y104.558 E14.29399
G1 X159.84 Y105.26 E14.31749
G1 X159.894 Y105.865 E14.3377
G1 X159.949 Y106.823 E14.36961
G1 X160.042 Y108.98 E14.44142
G1 X160.062 Y109.647 E14.46361
G1 X160.063 Y110.257 E14.4839
G1 X160.035 Y111.227 E14.51618
G1 X159.939 Y113.39 E14.58819
G1 X159.899 Y114.071 E14.61088
G1 X159.845 Y114.679 E14.63118
G1 X159.729 Y115.67 E14.66437
G1 X159.472 Y117.625 E14.72995
G1 X159.353 Y118.443 E14.75744
G1 X159.247 Y119.051 E14.77797
G1 X159.087 Y119.829 E14.80439
G1 X158.622 Y121.932 E14.87603
G1 X158.425 Y122.768 E14.90459
G1 X158.271 Y123.343 E14.92439
G1 X157.989 Y124.287 E14.95716
G1 X157.35 Y126.306 E15.02759
G1 X157.125 Y126.986 E15.05142
G1 X156.918 Y127.558 E15.07165
G1 X156.565 Y128.445 E15.1034
G1 X155.75 Y130.41 E15.17416
G1 X155.469 Y131.062 E15.19777
G1 X155.213 Y131.613 E15.21798
G1 X154.771 Y132.494 E15.25076
G1 X153.854 Y134.256 E15.31683
G1 X153.456 Y134.996 E15.34477
G1 X153.152 Y135.523 E15.36501
G1 X152.641 Y136.353 E15.39743
G1 X151.469 Y138.189 E15.46987
G1 X151.126 Y138.712 E15.49068
G1 X150.768 Y139.224 E15.51146
G1 X150.185 Y140.006 E15.5439
G1 X148.852 Y141.742 E15.6167
G1 X148.462 Y142.237 E15.63766
G1 X148.046 Y142.733 E15.65919
G1 X147.415 Y143.439 E15.69068
G1 X145.954 Y145.032 E15.76257
G1 X145.485 Y145.529 E15.7853
G1 X145.062 Y145.953 E15.80522
G1 X144.357 Y146.618 E15.83745
G1 X142.78 Y148.061 E15.90855
G1 X142.227 Y148.552 E15.93315
G1 X141.788 Y148.921 E15.95222
G1 X141.063 Y149.496 E15.983
G1 X139.296 Y150.85 E16.05704
